src/activities/chess/resource/bk.svg

<?xml version="1.0" encoding="UTF-8" standalone="no"?>
<!-- Created with Inkscape (http://www.inkscape.org/) -->

<svg
   xmlns:dc="http://purl.org/dc/elements/1.1/"
   xmlns:cc="http://creativecommons.org/ns#"
   xmlns:rdf="http://www.w3.org/1999/02/22-rdf-syntax-ns#"
   xmlns:svg="http://www.w3.org/2000/svg"
   xmlns="http://www.w3.org/2000/svg"
   xmlns:sodipodi="http://sodipodi.sourceforge.net/DTD/sodipodi-0.dtd"
   xmlns:inkscape="http://www.inkscape.org/namespaces/inkscape"
   sodipodi:docname="bk.svg"
   inkscape:version="0.91 r13725"
   version="1.1"
   id="svg4684"
   viewBox="0 0 64.000001 64.000001"
   height="64"
   width="64">
  <defs
     id="defs4686" />
  <sodipodi:namedview
     inkscape:window-maximized="1"
     inkscape:window-y="0"
     inkscape:window-x="0"
     inkscape:window-height="1051"
     inkscape:window-width="1878"
     units="px"
     showgrid="true"
     inkscape:current-layer="svg4684"
     inkscape:document-units="px"
     inkscape:cy="30.056038"
     inkscape:cx="34.951009"
     inkscape:zoom="5.6"
     inkscape:pageshadow="2"
     inkscape:pageopacity="0.0"
     borderopacity="1.0"
     bordercolor="#666666"
     pagecolor="#ffffff"
     id="base">
    <inkscape:grid
       type="xygrid"
       id="grid4137"
       empspacing="4" />
  </sodipodi:namedview>
  <metadata
     id="metadata4689">
    <rdf:RDF>
      <cc:Work
         rdf:about="">
        <dc:format>image/svg+xml</dc:format>
        <dc:type
           rdf:resource="http://purl.org/dc/dcmitype/StillImage" />
        <dc:title></dc:title>
        <dc:date>2016</dc:date>
        <dc:creator>
          <cc:Agent>
            <dc:title>Timothée Giet</dc:title>
          </cc:Agent>
        </dc:creator>
        <cc:license
           rdf:resource="http://creativecommons.org/licenses/by-sa/4.0/" />
      </cc:Work>
      <cc:License
         rdf:about="http://creativecommons.org/licenses/by-sa/4.0/">
        <cc:permits
           rdf:resource="http://creativecommons.org/ns#Reproduction" />
        <cc:permits
           rdf:resource="http://creativecommons.org/ns#Distribution" />
        <cc:requires
           rdf:resource="http://creativecommons.org/ns#Notice" />
        <cc:requires
           rdf:resource="http://creativecommons.org/ns#Attribution" />
        <cc:permits
           rdf:resource="http://creativecommons.org/ns#DerivativeWorks" />
        <cc:requires
           rdf:resource="http://creativecommons.org/ns#ShareAlike" />
      </cc:License>
    </rdf:RDF>
  </metadata>
  <g
     inkscape:groupmode="layer"
     id="layer2"
     inkscape:label="Calque 2" />
  <g
     id="g4250"
     style="fill:#7a8686;fill-opacity:1">
    <path
       style="fill:#7a8686;fill-opacity:1;fill-rule:evenodd;stroke:none;stroke-width:1px;stroke-linecap:butt;stroke-linejoin:miter;stroke-opacity:1"
       d="M 27 1 L 27 5 L 23 5 L 23 11 L 27 11 L 27 13 L 13.732422 13 L 22.267578 27 L 22 27 C 20.338 27 19 28.338 19 30 C 19 31.662 20.338 33 22 33 L 20.023438 42.869141 L 10 47 C 7.9364847 49.272523 7.9364847 54.727477 10 57 L 14.490234 61.640625 L 49.509766 61.640625 L 54 57 C 56.063515 54.727477 56.120156 49.272523 54.056641 47 L 54 47 L 43.988281 42.933594 L 42 33 C 43.662 33 45 31.662 45 30 C 45 28.338 43.662 27 42 27 L 41.732422 27 L 50.267578 13 L 37 13 L 37 11 L 41 11 L 41 5 L 37 5 L 37 1 L 27 1 z "
       id="path4139-5" />
  </g>
  <path
     style="fill:#161e1e;fill-opacity:1;fill-rule:evenodd;stroke:none;stroke-width:1px;stroke-linecap:butt;stroke-linejoin:miter;stroke-opacity:1"
     d="m 16,60 32,0 3,-3 -38,0 z"
     id="path4139"
     inkscape:connector-curvature="0"
     sodipodi:nodetypes="ccccc" />
  <path
     style="fill:#283737;fill-opacity:1;fill-rule:evenodd;stroke:none;stroke-width:1px;stroke-linecap:butt;stroke-linejoin:miter;stroke-opacity:1"
     d="m 12,49 c -1.885618,1.707047 -1.885618,5.292953 0,7 l 40,0 c 1.885618,-1.707047 1.885618,-5.292953 0,-7 z"
     id="path4145"
     inkscape:connector-curvature="0"
     sodipodi:nodetypes="ccccc" />
  <path
     style="fill:#425a5a;fill-opacity:1;fill-rule:evenodd;stroke:none;stroke-width:1px;stroke-linecap:butt;stroke-linejoin:miter;stroke-opacity:1"
     d="m 22,44 20,0 10,4 -40,0 z"
     id="path4139-3"
     inkscape:connector-curvature="0"
     sodipodi:nodetypes="ccccc" />
  <path
     style="fill:#283737;fill-opacity:1;fill-rule:evenodd;stroke:none;stroke-width:1px;stroke-linecap:butt;stroke-linejoin:miter;stroke-opacity:1"
     d="M 22,43 42,43 40,33 24,33 Z"
     id="path4171"
     inkscape:connector-curvature="0"
     sodipodi:nodetypes="ccccc" />
  <rect
     style="color:#000000;clip-rule:nonzero;display:inline;overflow:visible;visibility:visible;opacity:1;isolation:auto;mix-blend-mode:normal;color-interpolation:sRGB;color-interpolation-filters:linearRGB;solid-color:#000000;solid-opacity:1;fill:#283737;fill-opacity:1;fill-rule:evenodd;stroke:none;stroke-width:1px;stroke-linecap:butt;stroke-linejoin:miter;stroke-miterlimit:4;stroke-dasharray:none;stroke-dashoffset:0;stroke-opacity:1;marker:none;color-rendering:auto;image-rendering:auto;shape-rendering:auto;text-rendering:auto;enable-background:accumulate"
     id="rect4143"
     width="24"
     height="4"
     x="20"
     y="28"
     rx="2"
     ry="2" />
  <path
     style="fill:#394f4f;fill-opacity:1;fill-rule:evenodd;stroke:none;stroke-width:1px;stroke-linecap:butt;stroke-linejoin:miter;stroke-opacity:1"
     d="m 28,13 0,-3 -4,0 0,-4 4,0 0,-4 8,0 0,4 4,0 0,4 -4,0 0,3 z"
     id="path4148"
     inkscape:connector-curvature="0"
     sodipodi:nodetypes="ccccccccccccc" />
  <path
     style="fill:#394f4f;fill-opacity:1;fill-rule:evenodd;stroke:none;stroke-width:1px;stroke-linecap:butt;stroke-linejoin:miter;stroke-opacity:1"
     d="M 24,27 16,14 48,14 40,27 Z"
     id="path4146"
     inkscape:connector-curvature="0"
     sodipodi:nodetypes="ccccc" />
</svg>

<!--Created with Inkscape (http://www.inkscape.org/)--><svg xmlns:dc="http://purl.org/dc/elements/1.1/" xmlns:cc="http://creativecommons.org/ns#" xmlns:rdf="http://www.w3.org/1999/02/22-rdf-syntax-ns#" xmlns="http://www.w3.org/2000/svg" xmlns:sodipodi="http://sodipodi.sourceforge.net/DTD/sodipodi-0.dtd" xmlns:inkscape="http://www.inkscape.org/namespaces/inkscape" sodipodi:docname="bk.svg" inkscape:version="0.91 r13725" viewBox="0 0 64.000001 64.000001" height="64" width="64"><sodipodi:namedview inkscape:window-maximized="1" inkscape:window-y="0" inkscape:window-x="0" inkscape:window-height="1051" inkscape:window-width="1878" units="px" showgrid="true" inkscape:current-layer="svg4684" inkscape:document-units="px" inkscape:cy="30.056038" inkscape:cx="34.951009" inkscape:zoom="5.6" inkscape:pageshadow="2" inkscape:pageopacity="0.0" borderopacity="1.0" bordercolor="#666666" pagecolor="#ffffff"><inkscape:grid type="xygrid" empspacing="4"/></sodipodi:namedview><metadata><rdf:RDF><cc:Work><dc:format>image/svg+xml</dc:format><dc:type rdf:resource="http://purl.org/dc/dcmitype/StillImage"/><dc:title/><dc:date>2016</dc:date><dc:creator><cc:Agent><dc:title>Timothée Giet</dc:title></cc:Agent></dc:creator><cc:license rdf:resource="http://creativecommons.org/licenses/by-sa/4.0/"/></cc:Work><cc:License rdf:about="http://creativecommons.org/licenses/by-sa/4.0/"><cc:permits rdf:resource="http://creativecommons.org/ns#Reproduction"/><cc:permits rdf:resource="http://creativecommons.org/ns#Distribution"/><cc:requires rdf:resource="http://creativecommons.org/ns#Notice"/><cc:requires rdf:resource="http://creativecommons.org/ns#Attribution"/><cc:permits rdf:resource="http://creativecommons.org/ns#DerivativeWorks"/><cc:requires rdf:resource="http://creativecommons.org/ns#ShareAlike"/></cc:License></rdf:RDF></metadata><g style="fill:#7a8686;fill-opacity:1"><path style="fill:#7a8686;fill-opacity:1;fill-rule:evenodd;stroke:none;stroke-width:1px;stroke-linecap:butt;stroke-linejoin:miter;stroke-opacity:1" d="M27 1v4h-4v6h4v2H13.732l8.536 14H22c-1.662 0-3 1.338-3 3s1.338 3 3 3l-1.977 9.87L10 47c-2.064 2.273-2.064 7.727 0 10l4.49 4.64h35.02L54 57c2.064-2.273 2.12-7.727.057-10H54l-10.012-4.066L42 33c1.662 0 3-1.338 3-3s-1.338-3-3-3h-.268l8.536-14H37v-2h4V5h-4V1H27z"/></g><path style="fill:#161e1e;fill-opacity:1;fill-rule:evenodd;stroke:none;stroke-width:1px;stroke-linecap:butt;stroke-linejoin:miter;stroke-opacity:1" d="M16 60h32l3-3H13z" inkscape:connector-curvature="0" sodipodi:nodetypes="ccccc"/><path style="fill:#283737;fill-opacity:1;fill-rule:evenodd;stroke:none;stroke-width:1px;stroke-linecap:butt;stroke-linejoin:miter;stroke-opacity:1" d="M12 49c-1.886 1.707-1.886 5.293 0 7h40c1.886-1.707 1.886-5.293 0-7z" inkscape:connector-curvature="0" sodipodi:nodetypes="ccccc"/><path style="fill:#425a5a;fill-opacity:1;fill-rule:evenodd;stroke:none;stroke-width:1px;stroke-linecap:butt;stroke-linejoin:miter;stroke-opacity:1" d="M22 44h20l10 4H12z" inkscape:connector-curvature="0" sodipodi:nodetypes="ccccc"/><path style="fill:#283737;fill-opacity:1;fill-rule:evenodd;stroke:none;stroke-width:1px;stroke-linecap:butt;stroke-linejoin:miter;stroke-opacity:1" d="M22 43h20l-2-10H24z" inkscape:connector-curvature="0" sodipodi:nodetypes="ccccc"/><rect style="color:#000;clip-rule:nonzero;display:inline;overflow:visible;visibility:visible;opacity:1;isolation:auto;mix-blend-mode:normal;color-interpolation:sRGB;color-interpolation-filters:linearRGB;solid-color:#000;solid-opacity:1;fill:#283737;fill-opacity:1;fill-rule:evenodd;stroke:none;stroke-width:1px;stroke-linecap:butt;stroke-linejoin:miter;stroke-miterlimit:4;stroke-dasharray:none;stroke-dashoffset:0;stroke-opacity:1;marker:none;color-rendering:auto;image-rendering:auto;shape-rendering:auto;text-rendering:auto;enable-background:accumulate" width="24" height="4" x="20" y="28" rx="2" ry="2"/><path style="fill:#394f4f;fill-opacity:1;fill-rule:evenodd;stroke:none;stroke-width:1px;stroke-linecap:butt;stroke-linejoin:miter;stroke-opacity:1" d="M28 13v-3h-4V6h4V2h8v4h4v4h-4v3z" inkscape:connector-curvature="0" sodipodi:nodetypes="ccccccccccccc"/><path style="fill:#394f4f;fill-opacity:1;fill-rule:evenodd;stroke:none;stroke-width:1px;stroke-linecap:butt;stroke-linejoin:miter;stroke-opacity:1" d="m24 27-8-13h32l-8 13z" inkscape:connector-curvature="0" sodipodi:nodetypes="ccccc"/></svg>
